build/img/sprite/price-tag.svg

<svg width="35" height="35" viewBox="0 0 35 35" fill="currentColor" xmlns="http://www.w3.org/2000/svg">
<path d="M11.0709 8.58472C10.9437 8.45756 10.7674 8.3844 10.5876 8.3844C10.4078 8.3844 10.2314 8.45756 10.1043 8.58472C9.9772 8.71189 9.90399 8.88828 9.90399 9.0681C9.90399 9.24791 9.97714 9.4243 10.1043 9.55147C10.2314 9.67871 10.4078 9.75179 10.5876 9.75179C10.7674 9.75179 10.9437 9.67864 11.0709 9.55147C11.198 9.4243 11.2712 9.24791 11.2712 9.0681C11.2712 8.88828 11.198 8.71189 11.0709 8.58472Z" fill="currentColor"/>
<path d="M34.8 2.85866L33.9548 2.01231L34.7998 1.16719C35.0667 0.900207 35.0667 0.46729 34.7998 0.200238C34.5328 -0.0667459 34.1 -0.0667459 33.833 0.200238L32.9885 1.04481L32.1556 0.210835C32.0275 0.0825735 31.8537 0.0103751 31.6724 0.0103067L20.1023 0.00387998C20.1016 0.00387998 20.101 0.00387998 20.1004 0.00387998C19.1868 0.00387998 18.3278 0.359676 17.6818 1.00584L11.9081 6.78034C11.6412 7.04732 11.6412 7.48024 11.9081 7.74729C12.1751 8.01428 12.6079 8.01428 12.8749 7.74729L18.6486 1.97279C19.0364 1.58486 19.5519 1.37134 20.1004 1.37134C20.1008 1.37134 20.1012 1.37134 20.1016 1.37134L31.3884 1.37763L32.0219 2.01183L29.4854 4.54862C28.4099 3.9043 26.9919 4.0448 26.066 4.97066C25.5371 5.49971 25.2459 6.20303 25.2459 6.95113C25.2459 7.69923 25.5371 8.40255 26.066 8.93159C26.612 9.47759 27.3291 9.75059 28.0463 9.75059C28.7634 9.75059 29.4805 9.47759 30.0264 8.93159C30.9508 8.00703 31.0922 6.59164 30.4514 5.51646L32.9881 2.97933L33.6327 3.62481L33.6265 14.8981C33.6261 15.4461 33.4126 15.9614 33.025 16.349L16.3438 33.0327C15.956 33.4205 15.4403 33.6341 14.892 33.6341C14.3436 33.6341 13.8279 33.4205 13.4401 33.0327L1.96861 21.5593C1.58074 21.1715 1.36719 20.6558 1.36719 20.1073C1.36719 19.5588 1.58074 19.0431 1.96861 18.6553L9.33734 11.2854C9.60429 11.0184 9.60429 10.5855 9.33734 10.3185C9.07033 10.0515 8.63762 10.0515 8.37054 10.3185L1.00181 17.6883C0.355811 18.3344 0 19.1935 0 20.1073C0 21.0211 0.355811 21.8802 1.00181 22.5263L12.4733 33.9996C13.1402 34.6665 14.016 35 14.892 35C15.7679 35 16.6437 34.6665 17.3106 33.9996L33.9918 17.3158C34.6373 16.6702 34.993 15.8118 34.9936 14.8987L35 3.34217C35.0001 3.16085 34.9282 2.98692 34.8 2.85866ZM29.0596 7.96457C28.7889 8.23532 28.429 8.38443 28.0463 8.38443C27.6634 8.38443 27.3036 8.23532 27.0329 7.96457C26.474 7.40572 26.474 6.49633 27.0329 5.93748C27.3123 5.65798 27.6792 5.51831 28.0463 5.51831C28.1845 5.51831 28.3227 5.5382 28.4562 5.57786L27.6672 6.36698C27.4003 6.63396 27.4003 7.06688 27.6672 7.33393C27.8007 7.46746 27.9757 7.53419 28.1506 7.53419C28.3255 7.53419 28.5005 7.46746 28.634 7.33393L29.4208 6.547C29.5629 7.03372 29.4427 7.5815 29.0596 7.96457Z" fill="currentColor"/>
<path d="M29.2003 13.7645L21.2338 5.79669C20.1785 4.7412 18.4612 4.74134 17.406 5.79669L4.79912 18.4056C4.28786 18.9168 4.00629 19.5966 4.00629 20.3197C4.00629 21.0428 4.28779 21.7227 4.79905 22.2339L12.7657 30.2016C13.2769 30.7129 13.9565 30.9946 14.6795 30.9946C15.4025 30.9946 16.0822 30.713 16.5934 30.2017L29.2003 17.5928C29.7116 17.0815 29.9931 16.4017 29.9931 15.6786C29.9931 14.9556 29.7116 14.2758 29.2003 13.7645ZM28.2335 16.6258L15.6266 29.2349C15.3737 29.4878 15.0373 29.6272 14.6796 29.6272C14.3219 29.6272 13.9855 29.4878 13.7325 29.2348L5.76586 21.267C5.51286 21.014 5.37354 20.6776 5.37354 20.3198C5.37347 19.9619 5.51286 19.6255 5.76586 19.3725L18.3728 6.76365C18.634 6.50247 18.9769 6.37189 19.3199 6.37189C19.6629 6.37189 20.0059 6.50254 20.267 6.76365L28.2335 14.7314C28.4865 14.9844 28.6258 15.3208 28.6258 15.6786C28.6258 16.0364 28.4865 16.3729 28.2335 16.6258Z" fill="currentColor"/>
<path d="M22.2904 13.677C22.5574 13.41 22.5574 12.9771 22.2904 12.71C22.0234 12.443 21.5907 12.443 21.3236 12.71L20.93 13.1037C19.879 12.4544 18.5304 12.5415 17.6779 13.394C17.1808 13.8912 16.9265 14.5662 16.9618 15.2949C16.9959 15.9985 17.2989 16.6702 17.8148 17.1862C17.8149 17.1863 17.8149 17.1863 17.8149 17.1864C18.3648 17.7365 18.4261 18.5701 17.9517 19.0446C17.4771 19.5191 16.6435 19.4577 16.0935 18.9077C15.5435 18.3575 15.4821 17.5238 15.9566 17.0492C16.2235 16.7822 16.2235 16.3493 15.9566 16.0823C15.6896 15.8153 15.2569 15.8153 14.9898 16.0823C14.1373 16.9348 14.0503 18.2836 14.6995 19.3349L14.2324 19.8019C13.9655 20.0689 13.9655 20.5018 14.2324 20.7689C14.3663 20.9025 14.5412 20.9693 14.7161 20.9693C14.8911 20.9693 15.066 20.9025 15.1995 20.769L15.6668 20.3016C16.1261 20.5853 16.6419 20.729 17.1486 20.729C17.8013 20.7289 18.4387 20.4915 18.9186 20.0115C19.9259 19.004 19.8647 17.3033 18.7822 16.22C18.782 16.2198 18.7819 16.2196 18.7817 16.2194C18.5065 15.9441 18.3451 15.5923 18.3275 15.2287C18.3112 14.8901 18.4238 14.582 18.6448 14.361C19.1192 13.8864 19.9526 13.9478 20.5027 14.4977C20.5028 14.4978 20.5028 14.4979 20.5028 14.4979C20.5029 14.498 20.503 14.498 20.503 14.498C21.0529 15.0482 21.1142 15.8817 20.6397 16.3563C20.3727 16.6233 20.3727 17.0562 20.6397 17.3232C20.7732 17.4568 20.9481 17.5235 21.1231 17.5235C21.298 17.5235 21.4729 17.4568 21.6064 17.3232C22.4589 16.4706 22.546 15.1218 21.8968 14.0706L22.2904 13.677Z" fill="currentColor"/>
<path d="M15.3717 25.0115L11.8607 21.4999C11.5937 21.2332 11.161 21.233 10.8939 21.4999C10.6269 21.7669 10.6269 22.1998 10.8939 22.4669L14.4049 25.9785C14.5385 26.112 14.7134 26.1788 14.8883 26.1788C15.0632 26.1788 15.2382 26.112 15.3717 25.9785C15.6386 25.7115 15.6386 25.2786 15.3717 25.0115Z" fill="currentColor"/>
<path d="M9.98793 19.627C9.86085 19.4999 9.6851 19.4266 9.5047 19.4266C9.32491 19.4266 9.14923 19.4998 9.0214 19.627C8.89425 19.7541 8.82111 19.9305 8.82111 20.111C8.82111 20.2908 8.89418 20.4672 9.0214 20.5944C9.14855 20.7216 9.32491 20.7947 9.5047 20.7947C9.68517 20.7947 9.86085 20.7216 9.98793 20.5944C10.1158 20.4665 10.1889 20.2908 10.1889 20.111C10.1889 19.9305 10.1158 19.7548 9.98793 19.627Z" fill="#currentColor"/>
</svg>

<svg width="35" height="35" fill="currentColor" xmlns="http://www.w3.org/2000/svg"><path d="M11.07 8.585a.689.689 0 0 0-.482-.2.689.689 0 0 0-.484.2.69.69 0 0 0-.2.483c0 .18.073.356.2.483.127.128.304.2.484.2s.356-.072.483-.2a.69.69 0 0 0 .2-.483.69.69 0 0 0-.2-.483Z" fill="currentColor"/><path d="m34.8 2.859-.845-.847.845-.845A.684.684 0 0 0 33.833.2l-.844.845-.833-.834a.683.683 0 0 0-.484-.2L20.102.003H20.1c-.913 0-1.772.356-2.418 1.002L11.908 6.78a.684.684 0 0 0 .967.967l5.774-5.774A2.04 2.04 0 0 1 20.1 1.37h.002l11.286.007.634.634-2.537 2.537a2.805 2.805 0 0 0-3.419.422 2.783 2.783 0 0 0-.82 1.98c0 .748.291 1.452.82 1.98a2.792 2.792 0 0 0 1.98.82c.717 0 1.434-.273 1.98-.82a2.806 2.806 0 0 0 .425-3.415l2.537-2.537.645.646-.007 11.273a2.04 2.04 0 0 1-.601 1.451L16.344 33.033a2.04 2.04 0 0 1-1.452.601 2.04 2.04 0 0 1-1.452-.601L1.97 21.559a2.04 2.04 0 0 1-.602-1.452c0-.548.214-1.064.602-1.452l7.368-7.37a.684.684 0 0 0-.966-.966L1 17.689A3.399 3.399 0 0 0 0 20.106c0 .914.356 1.773 1.002 2.42L12.473 34a3.41 3.41 0 0 0 2.419 1 3.41 3.41 0 0 0 2.419-1l16.68-16.684a3.4 3.4 0 0 0 1.003-2.417L35 3.342a.683.683 0 0 0-.2-.483Zm-5.74 5.106c-.271.27-.631.42-1.014.42s-.742-.15-1.013-.42a1.435 1.435 0 0 1 1.013-2.447c.139 0 .277.02.41.06l-.789.789a.684.684 0 0 0 .967.967l.787-.787a1.434 1.434 0 0 1-.361 1.418Z" fill="currentColor"/><path d="m29.2 13.764-7.966-7.967a2.71 2.71 0 0 0-3.828 0L4.799 18.406a2.69 2.69 0 0 0-.793 1.914c0 .723.282 1.403.793 1.914l7.967 7.968c.51.51 1.19.793 1.914.793.723 0 1.402-.282 1.913-.793L29.2 17.592a2.69 2.69 0 0 0 .793-1.913 2.69 2.69 0 0 0-.793-1.915Zm-.966 2.862L15.627 29.235a1.33 1.33 0 0 1-.947.392 1.33 1.33 0 0 1-.947-.392l-7.967-7.968a1.33 1.33 0 0 1-.392-.947c0-.358.139-.695.392-.948L18.373 6.764c.261-.262.604-.392.947-.392.343 0 .686.13.947.392l7.966 7.967c.253.253.393.59.393.948 0 .357-.14.694-.393.947Z" fill="currentColor"/><path d="M22.29 13.677a.684.684 0 0 0-.966-.967l-.394.394c-1.051-.65-2.4-.563-3.252.29a2.48 2.48 0 0 0-.716 1.9 2.876 2.876 0 0 0 .853 1.892c.55.55.611 1.384.137 1.859-.475.474-1.309.413-1.859-.137s-.61-1.384-.136-1.859a.684.684 0 0 0-.967-.967c-.853.853-.94 2.202-.29 3.253l-.468.467a.684.684 0 0 0 .968.967l.467-.467c.46.283.975.427 1.482.427.652 0 1.29-.238 1.77-.717 1.007-1.008.946-2.709-.137-3.792a1.512 1.512 0 0 1-.454-.991 1.13 1.13 0 0 1 .317-.868c.474-.475 1.308-.413 1.858.137s.611 1.384.137 1.858a.684.684 0 0 0 .966.967c.853-.852.94-2.201.29-3.252l.394-.394ZM15.372 25.012 11.86 21.5a.684.684 0 0 0-.967.967l3.51 3.512a.682.682 0 0 0 .968 0 .684.684 0 0 0 0-.967ZM9.988 19.627a.688.688 0 0 0-.483-.2.69.69 0 0 0-.484.2.689.689 0 0 0-.2.484c0 .18.073.356.2.483a.687.687 0 0 0 1.168-.483.688.688 0 0 0-.201-.484Z" fill="currentColor"/></svg>
